X:128
T:Sailor's Hornpipe, The
T:College Hornpipe, The
R:hornpipe
H:Standard English version. See also #111
Z:id:hn-hornpipe-128
M:C|
L:1/8
K:G
gf | g2G2 G2dc | Bdgf gabg | a2A2 A2ag | fed^c d2ef |
gfed edcB | cBAG GFED | EGFA GBAc | B2G2 G2 :|
|: dc | Bdgd Bdgd | e2c2 c2ed | ^ceae ^ceae | f2d2 d2ef |
gfed edcB | cBAG GFED | EGFA GBAc | B2G2 G2 :|

